X:166
T:Cox Heath THO4.166
M:2/4
L:1/8
Z:vmp. Peter Dunk 2010/11.from a transcription by Fynn Titford-Mock 2007
B:Thompson's Compleat Collection of 200 Favourite Country Dances Volume IV.
Q:1/4=140
K:G
g2 dc|B>AGA|Bcde|cA A2|g2 dc|BAGA|B/c/d/B/ Ac|BG G2:|
|:b/a/g/a/ bg|a/g/f/g/ af|g2 eg|gf Tf2|\
[cC]c/d/ ec|[BB,]B/c/ dB|c/d/e/A/ Ac|BG G2:|
